src/static/no-qr.svg

<svg
  width="35"
  height="35"
  viewBox="0 0 35 35"
  fill="none"
  xmlns="http://www.w3.org/2000/svg"
>
  <path
    fill-rule="evenodd"
    clip-rule="evenodd"
    d="M5 9V13.6667C5 14.0203 5.14048 14.3594 5.39052 14.6095C5.64057 14.8595 5.97971 15 6.33333 15H11L8.33333 12.3333H7.66667V11.6667L5 9ZM16.8186 12.3333L15.6667 11.1814V7.66667C15.6667 7.48986 15.7369 7.32029 15.8619 7.19526C15.987 7.07024 16.1565 7 16.3333 7H17.6667C17.8435 7 18.013 7.07024 18.1381 7.19526C18.2631 7.32029 18.3333 7.48986 18.3333 7.66667V11.6667C18.3333 11.8435 18.2631 12.013 18.1381 12.1381C18.013 12.2631 17.8435 12.3333 17.6667 12.3333H16.8186ZM13.6667 17.6667L15.6667 19.6667V20.3333H11C10.8232 20.3333 10.6536 20.2631 10.5286 20.1381C10.4036 20.013 10.3333 19.8435 10.3333 19.6667V18.3333C10.3333 18.1565 10.4036 17.987 10.5286 17.8619C10.6536 17.7369 10.8232 17.6667 11 17.6667H13.6667ZM21 25.6667H19C18.8232 25.6667 18.6536 25.5964 18.5286 25.4714C18.4036 25.3464 18.3333 25.1768 18.3333 25V23H16.3333C16.1565 23 15.987 22.9298 15.8619 22.8047C15.7369 22.6797 15.6667 22.5101 15.6667 22.3333V20.3333H16.3333L21 25V25.6667ZM21.6667 25.6667H21V28.3333H16.3333C16.1565 28.3333 15.987 28.4036 15.8619 28.5286C15.7369 28.6536 15.6667 28.8232 15.6667 29V30.3333C15.6667 30.5101 15.7369 30.6797 15.8619 30.8047C15.987 30.9298 16.1565 31 16.3333 31H20.3333C20.5101 31 20.6797 30.9298 20.8047 30.8047C20.9298 30.6797 21 30.5101 21 30.3333V28.3333H23.6667V30.3333C23.6667 30.5101 23.7369 30.6797 23.8619 30.8047C23.987 30.9298 24.1565 31 24.3333 31H27L24.3333 28.3333H23.6667V27.6667L21.6667 25.6667ZM26.3333 21.8481V20.3333H28.3333C28.5101 20.3333 28.6797 20.2631 28.8047 20.1381C28.9298 20.013 29 19.8435 29 19.6667V18.3333C29 18.1565 28.9298 17.987 28.8047 17.8619C28.6797 17.7369 28.5101 17.6667 28.3333 17.6667H22.1519L26.3333 21.8481ZM13 8.51472L11.4853 7H11.6667C12.0203 7 12.3594 7.14048 12.6095 7.39052C12.8595 7.64057 13 7.97971 13 8.33333V8.51472ZM7.4714 20.1381C7.34638 20.2631 7.17681 20.3333 7 20.3333H5.66667C5.48986 20.3333 5.32029 20.2631 5.19526 20.1381C5.07024 20.013 5 19.8435 5 19.6667V18.3333C5 18.1565 5.07024 17.987 5.19526 17.8619C5.32029 17.7369 5.48986 17.6667 5.66667 17.6667H7C7.17681 17.6667 7.34638 17.7369 7.4714 17.8619C7.59643 17.987 7.66667 18.1565 7.66667 18.3333V19.6667C7.66667 19.8435 7.59643 20.013 7.4714 20.1381ZM6.33333 23H11.6667C12.0203 23 12.3594 23.1405 12.6095 23.3905C12.8595 23.6406 13 23.9797 13 24.3333V29.6667C13 30.0203 12.8595 30.3594 12.6095 30.6095C12.3594 30.8595 12.0203 31 11.6667 31H6.33333C5.97971 31 5.64057 30.8595 5.39052 30.6095C5.14048 30.3594 5 30.0203 5 29.6667V24.3333C5 23.9797 5.14048 23.6406 5.39052 23.3905C5.64057 23.1405 5.97971 23 6.33333 23ZM7.66667 28.3333H10.3333V25.6667H7.66667V28.3333ZM22.3333 7H27.6667C28.0203 7 28.3594 7.14048 28.6095 7.39052C28.8595 7.64057 29 7.97971 29 8.33333V13.6667C29 14.0203 28.8595 14.3594 28.6095 14.6095C28.3594 14.8595 28.0203 15 27.6667 15H22.3333C21.9797 15 21.6406 14.8595 21.3905 14.6095C21.1405 14.3594 21 14.0203 21 13.6667V8.33333C21 7.97971 21.1405 7.64057 21.3905 7.39052C21.6406 7.14048 21.9797 7 22.3333 7ZM23.6667 12.3333H26.3333V9.66667H23.6667V12.3333Z"
    fill="white"
  />
  <line
    x1="2.12132"
    y1="2"
    x2="33"
    y2="32.8787"
    stroke="white"
    stroke-width="3"
    stroke-linecap="round"
  />
</svg>

<svg xmlns="http://www.w3.org/2000/svg" width="35" height="35" fill="none"><path fill="#fff" fill-rule="evenodd" d="M5 9v4.667A1.333 1.333 0 0 0 6.333 15H11l-2.667-2.667h-.666v-.666L5 9Zm11.819 3.333-1.152-1.152V7.667A.667.667 0 0 1 16.333 7h1.334a.667.667 0 0 1 .666.667v4a.667.667 0 0 1-.666.666h-.848Zm-3.152 5.334 2 2v.666H11a.667.667 0 0 1-.667-.666v-1.334a.667.667 0 0 1 .667-.666h2.667Zm7.333 8h-2a.667.667 0 0 1-.667-.667v-2h-2a.667.667 0 0 1-.666-.667v-2h.666L21 25v.667Zm.667 0H21v2.666h-4.667a.667.667 0 0 0-.666.667v1.333a.667.667 0 0 0 .666.667h4a.666.666 0 0 0 .667-.667v-2h2.667v2a.667.667 0 0 0 .666.667H27l-2.667-2.667h-.666v-.666l-2-2Zm4.666-3.819v-1.515h2a.667.667 0 0 0 .667-.666v-1.334a.667.667 0 0 0-.667-.666h-6.181l4.181 4.181ZM13 8.515 11.485 7h.182A1.333 1.333 0 0 1 13 8.333v.182ZM7.471 20.138a.667.667 0 0 1-.471.195H5.667A.667.667 0 0 1 5 19.667v-1.334a.667.667 0 0 1 .667-.666H7a.667.667 0 0 1 .667.666v1.334c0 .176-.07.346-.196.471ZM6.333 23h5.334A1.334 1.334 0 0 1 13 24.333v5.334A1.334 1.334 0 0 1 11.667 31H6.333A1.334 1.334 0 0 1 5 29.667v-5.334A1.333 1.333 0 0 1 6.333 23Zm1.334 5.333h2.666v-2.666H7.667v2.666ZM22.333 7h5.334A1.333 1.333 0 0 1 29 8.333v5.334A1.334 1.334 0 0 1 27.667 15h-5.334A1.334 1.334 0 0 1 21 13.667V8.333A1.334 1.334 0 0 1 22.333 7Zm1.334 5.333h2.666V9.667h-2.666v2.666Z" clip-rule="evenodd"/><path stroke="#fff" stroke-linecap="round" stroke-width="3" d="M2.121 2 33 32.879"/></svg>
